X: 35486
T: Royal Weddings
R: reel
M: 4/4
K: Gmajor
G2 B2 B2 AG|AB c2 c4|Bc d2 d2 cB|AG FE D4|
Bc d2 d2 cB|cd e2 e2 fg|d2 cB cB AG|D2 F2 A4:|
g2 d2 d2 cB|g2 d2 d4|e2 c2 ed cB|AG FE D4|
GA BG AB cA|Bc dB cd ec|d2 g2 d2 B2|D2 F2G4:|

